!!!COM: Bach, Johann Sebastian
!!!OPR: Six Concerts Avec plusieurs ... le prince regnant d'Anhalt-Coethen
!!!OTL: Brandenburgische Konzerte G
!!!XEN: Brandenburg Concerto No. 4 in G major.
!!!OMV: Movement 2.
!!!SCT: BWV 1049
!!!YEC: Copyright 1994, Center for Computer Assisted Research in the Humanities
!!!YEM: Rights to all derivative electronic formats reserved.
!!!YEM: Refer to licensing agreement for further details.
!! For the following instrumentation: Violino principale, Flauto Dolce
!!    (sopranino) I & II, Violino di ripieno I & II, Viola di ripieno,
!!    Violoncello, Violone, Continuo.
!! Andante.
**kern	**kern	**kern	**kern	**kern	**kern	**kern	**kern	**kern
*ICklav	*ICstr	*ICstr	*ICstr	*ICstr	*ICstr	*ICww	*ICww	*ICstr
*Icemba	*Icbass	*Icello	*Iviola	*Ivioln	*Ivioln	*Ifltdn	*Ifltdn	*Ivioln
*IGripn	*IGripn	*IGripn	*IGripn	*IGripn	*IGripn	*IGconc	*IGconc	*IGconc
*IGcont	*IGcont	*IGcont	*	*	*	*	*	*
!contin	!v'lone	!'cello	!vd'rip	!v'lin2	!v'lin1	!flaut2	!flaut1	!v'lin
*k[f#]	*k[f#]	*k[f#]	*k[f#]	*k[f#]	*k[f#]	*k[f#]	*k[f#]	*k[f#]
*e:	*e:	*e:	*e:	*e:	*e:	*e:	*e:	*e:
*M3/4	*M3/4	*M3/4	*M3/4	*M3/4	*M3/4	*M3/4	*M3/4	*M3/4
*MM52	*MM52	*MM52	*MM52	*MM52	*MM52	*MM52	*MM52	*MM52
*clefF4	*clefF4	*clefF4	*clefC3	*clefG2	*clefG2	*clefG2	*clefG2	*clefG2
=1	=1	=1	=1	=1	=1	=1	=1	=1
4EE/	4EEE/	4EE/	4r	4r	4r	4r	4r	4r
4E\	4EE\	4E\	4e\	(8gg\L	(8bb\L	(8gg\L	(8bb\L	(8bb\L
.	.	.	.	8aa\)	8ccc\)	8aa\)	8ccc\)	8ccc\)
[4e\	[4E\	[4e\	4g\	(8gg\	(8bb\	(8gg\	(8bb\	(8bb\
.	.	.	.	8aa\J)	8ccc\J)	8aa\J)	8ccc\J)	8ccc\J)
=2	=2	=2	=2	=2	=2	=2	=2	=2
4e\]	4E\]	4e\]	4cc\	(8ff#\L	(8aa\L	(8ff#\L	(8aa\L	(8aa\L
.	.	.	.	8ee\)	8gg\)	8ee\)	8gg\)	8gg\)
2d#\	2D#\	2d#\	4f#\	(8ff#\	(8aa\	(8ff#\	(8aa\	(8aa\
.	.	.	.	8aa\)	8ccc\)	8aa\)	8ccc\)	8ccc\)
.	.	.	4b\	(8gg\	(8bb\	(8gg\	(8bb\	(8bb\
.	.	.	.	8ff#\J)	8aa\J)	8ff#\J)	8aa\J)	8aa\J)
=3	=3	=3	=3	=3	=3	=3	=3	=3
4e\	4E\	4e\	4b\	4ee\	4gg\	4ee\	4gg\	4gg\
4r	4r	4r	4r	4r	4r	(8gg\L	(8bb\L	4e/
.	.	.	.	.	.	8aa\)	8ccc\)	.
4r	4r	4r	4r	4r	4r	(8gg\	(8bb\	[4ee\
.	.	.	.	.	.	8aa\J)	8ccc\J)	.
=4	=4	=4	=4	=4	=4	=4	=4	=4
2.r	2.r	2.r	2.r	2.r	2.r	(8ff#\L	(8aa\L	4ee\]
.	.	.	.	.	.	8ee\)	8gg\)	.
.	.	.	.	.	.	(8ff#\	(8aa\	2dd#\
.	.	.	.	.	.	8aa\)	8ccc\)	.
.	.	.	.	.	.	(8gg\	(8bb\	.
.	.	.	.	.	.	8ff#\J)	8aa\J)	.
=5	=5	=5	=5	=5	=5	=5	=5	=5
4r	4r	4r	4r	4r	4r	4ee\	4gg\	4ee\
4e\	4E\	4e\	4e\	(8b\L	(8gg\L	(8b\L	(8gg\L	(8gg\L
.	.	.	.	8cc\)	8aa\)	8cc\)	8aa\)	8aa\)
4E\	4EE\	4E\	4g\	(8b\	(8gg\	(8b\	(8gg\	(8gg\
.	.	.	.	8cc\J)	8aa\J)	8cc\J)	8aa\J)	8aa\J)
=6	=6	=6	=6	=6	=6	=6	=6	=6
4A\	4AA\	4A\	4cc\	(8a/L	(8ff#\L	(8a/L	(8ff#\L	(8ff#\L
.	.	.	.	8g/)	8ee\)	8g/)	8ee\)	8ee\)
(8c\L	(8C\L	(8c\L	4d#\	(8a/	(8ff#\	(8a/	(8ff#\	(8ff#\
8B\J)	8BB\J)	8B\J)	.	8b/)	8gg\)	8b/)	8gg\)	8gg\)
4c\	4C\	4c\	4e\	(8g/	(8ee\	(8g/	(8ee\	(8ee\
.	.	.	.	8a/J)	8ff#\J)	8a/J)	8ff#\J)	8ff#\J)
=7	=7	=7	=7	=7	=7	=7	=7	=7
4B\	4BB\	4B\	4f#\	4b\	4dd#\	4b\	4dd#\	4dd#\
4r	4r	4r	4r	4r	4r	(8b\L	(8gg\L	4ee\
.	.	.	.	.	.	8cc\)	8aa\)	.
4r	4r	4r	4r	4r	4r	(8b\	(8gg\	4e/
.	.	.	.	.	.	8cc\J)	8aa\J)	.
=8	=8	=8	=8	=8	=8	=8	=8	=8
2.r	2.r	2.r	2.r	2.r	2.r	(8a/L	(8ff#\L	4a/
.	.	.	.	.	.	8g/)	8ee\)	.
.	.	.	.	.	.	(8a/	(8ff#\	(8cc\L
.	.	.	.	.	.	8b/)	8gg\)	8b\J)
.	.	.	.	.	.	(8g/	(8ee\	4cc\
.	.	.	.	.	.	8a/J)	8ff#\J)	.
=9	=9	=9	=9	=9	=9	=9	=9	=9
4r	4r	4r	4r	4r	4r	4b\	4dd#\	4b\
4B\	4BB\	4B\	4b\	(8dd#\L	(8ff#\L	(8dd#\L	(8ff#\L	(8ff#\L
.	.	.	.	8ee\)	8gg\)	8ee\)	8gg\)	8gg\)
4BB/	4BBB/	4BB/	4b\	(8ff#\	(8aa\	(8ff#\	(8aa\	(8aa\
.	.	.	.	8dd#\J)	8ff#\J)	8dd#\J)	8ff#\J)	8ff#\J)
=10	=10	=10	=10	=10	=10	=10	=10	=10
4E\	4EE\	4E\	4b\	4ee\	4gg\	4ee\	4gg\	4gg\
4r	4r	4r	4r	4r	4r	(8dd#\L	(8ff#\L	4b\
.	.	.	.	.	.	8ee\)	8gg\)	.
4r	4r	4r	4r	4r	4r	(8ff#\	(8aa\	4B/
.	.	.	.	.	.	8dd#\J)	8ff#\J)	.
=11	=11	=11	=11	=11	=11	=11	=11	=11
4r	4r	4r	4r	4r	4r	4ee\	4gg\	4e/
4D\	4DD\	4D\	4e\	(8b\L	(8gg#\L	(8b\L	(8gg#\L	(8gg#\L
.	.	.	.	8cc\)	8aa\)	8cc\)	8aa\)	8aa\)
4d\	4D\	4d\	4e\	(8a\	(8ff#\	(8a\	(8ff#\	(8ff#\
.	.	.	.	8b\J)	8gg#\J)	8b\J)	8gg#\J)	8gg#\J)
=12	=12	=12	=12	=12	=12	=12	=12	=12
4c\	4C\	4c\	4e\	4cc\	4aa\	4cc\	4aa\	4aa\
4r	4r	4r	4r	4r	4r	(8b\L	(8gg#\L	4d/
.	.	.	.	.	.	8cc\)	8aa\)	.
4r	4r	4r	4r	4r	4r	(8a\	(8ff#\	4dd\
.	.	.	.	.	.	8b\J)	8gg#\J)	.
=13	=13	=13	=13	=13	=13	=13	=13	=13
4r	4r	4r	4r	4r	4r	4cc\	4aa\	4cc\
4F#\	4FF#\	4F#\	4a\	(8ff#\L	[2aa\	(8ff#\L	[2aa\	[2aa\
.	.	.	.	8gg\)	.	8gg\)	.	.
4FF#/	4FFF#/	4FF#/	4cc\	(8ee\	.	(8ee\	.	.
.	.	.	.	8ff#\J)	.	8ff#\J)	.	.
=14	=14	=14	=14	=14	=14	=14	=14	=14
4BB/	4BBB/	4BB/	4b\	(8dd#\L	4aa\]	(8dd#\L	4aa\]	4aa\]
.	.	.	.	8ff#\)	.	8ff#\)	.	.
4E\	4EE\	4E\	4B/	(8ee\	4gg#\	(8ee\	4gg#\	4gg#\
.	.	.	.	8ff#\)	.	8ff#\)	.	.
4EE/	4EEE/	4EE/	[4e\	(8dd\	[4gg\	(8dd\	[4gg\	[4gg\
.	.	.	.	8ee\J)	.	8ee\J)	.	.
=15	=15	=15	=15	=15	=15	=15	=15	=15
4AA/	4AAA/	4AA/	8e\L]	(8cc#\L	4gg\]	(8cc#\L	4gg\]	4gg\]
.	.	.	8c#\J	8ee\)	.	8ee\)	.	.
4D\	4DD\	4D\	4A/	(8dd\	4ff#\	(8dd\	4ff#\	4ff#\
.	.	.	.	8ee\)	.	8ee\)	.	.
4DD/	4DDD/	4DD/	[4d\	(8cc\	[4ff\	(8cc\	[4ff\	[4ff\
.	.	.	.	8dd\J)	.	8dd\J)	.	.
=16	=16	=16	=16	=16	=16	=16	=16	=16
4GG/	4GGG/	4GG/	8d\L]	(8b\L	4ff\]	(8b\L	4ff\]	4ff\]
.	.	.	8e\J	8cc\)	.	8cc\)	.	.
4G\	4GG\	4G\	4f#\	(8b\	4dd#\	(8b\	4dd#\	4dd#\
.	.	.	.	8a\)	.	8a\)	.	.
(8c\L	(8C\L	(8c\L	[4e\	(8g\	[4ee\	(8g\	[4ee\	[4ee\
8B\J)	8BB\J)	8B\J)	.	8b\J)	.	8b\J)	.	.
=17	=17	=17	=17	=17	=17	=17	=17	=17
8c\L	8C\L	8c\L	8e\L]	(8ee\L	8ee\L]	(8ee\L	8ee\L]	8ee\L]
8A\J	8AA\J	8A\J	8cc\J	8dd#\J)	8ff#\J	8dd#\J)	8ff#\J	8ff#\J
4B\	4BB\	4B\	4b\	4.dd#t\	4.ff#t\	4.dd#t\	4.ff#t\	4.ff#t\
4BB/	4BBB/	4BB/	4a\	.	.	.	.	.
.	.	.	.	8ee\	8ee\	8ee\	8ee\	8ee\
=18	=18	=18	=18	=18	=18	=18	=18	=18
4E\	4EEE/	4E\	4g\	4ee\	4ee\	4ee\	4ee\	4ee\
4r	4r	4r	4r	4r	4r	(8gg\L	(8bb\L	4ee\
.	.	.	.	.	.	8aa\)	8ccc\)	.
4r	4r	4r	4r	4r	4r	(8gg\	(8bb\	4e/
.	.	.	.	.	.	8aa\J)	8ccc\J)	.
=19	=19	=19	=19	=19	=19	=19	=19	=19
4r	4r	4r	4r	4r	4r	4bb\	4ddd\	(8b\L
.	.	.	.	.	.	.	.	8cc\
4D\	4DD\	4D\	4d\	(8ff#\L	(8aa\L	(8ff#\L	(8aa\L	8dd\)
.	.	.	.	8gg\)	8bb\)	8gg\)	8bb\)	8bb\
4DD/	4DDD/	4DD/	4d\	(8aa\	(8ccc\	(8aa\	(8ccc\	8ccc\
.	.	.	.	8ff#\J)	8aa\J)	8ff#\J)	8aa\J)	8aa\J
=20	=20	=20	=20	=20	=20	=20	=20	=20
4GG/	4GGG/	4GG/	4d\	4gg\	4bb\	4gg\	4bb\	4bb\
4r	4r	4r	4r	4r	4r	(8ff#\L	(8aa\L	4dd\
.	.	.	.	.	.	8gg\)	8bb\)	.
4r	4r	4r	4r	4r	4r	(8aa\	(8ccc\	4d/
.	.	.	.	.	.	8ff#\J)	8aa\J)	.
=21	=21	=21	=21	=21	=21	=21	=21	=21
4r	4r	4r	4r	4r	4r	4gg\	4bb\	4g/
4E\	4EE\	4E\	4e\	(8gg#\L	(8bb\L	(8gg#\L	(8bb\L	(8bb\L
.	.	.	.	8aa\)	8ccc\)	8aa\)	8ccc\)	8ccc\)
4EE/	4EEE/	4EE/	4e\	(8bb\	(8ddd\	(8bb\	(8ddd\	(8ddd\
.	.	.	.	8gg#\J)	8bb\J)	8gg#\J)	8bb\J)	8bb\J)
=22	=22	=22	=22	=22	=22	=22	=22	=22
4AA/	4AAA/	4AA/	4e\	(8aa\L	(8ccc\L	(8aa\L	(8ccc\L	(8ccc\L
.	.	.	.	8gg\)	8bb\)	8gg\)	8bb\)	8bb\)
4A\	4AA\	4A\	(8a\L	(8ff\	(8ddd\	(8ff\	(8ddd\	(8ddd\
.	.	.	8g#\J)	8ee\)	8ccc\)	8ee\)	8ccc\)	8ccc\)
4F\	4FF\	4F\	4a\	(8cc\	(8bb\	(8cc\	(8bb\	(8bb\
.	.	.	.	8dd\J)	8aa\J)	8dd\J)	8aa\J)	8aa\J)
=23	=23	=23	=23	=23	=23	=23	=23	=23
4E\	4EE\	4E\	4b\	4ee\	4gg#\	4ee\	4gg#\	4gg#\
4r	4r	4r	4r	4r	4r	(8ff\L	(8ddd\L	(8d/L
.	.	.	.	.	.	8ee\)	8ccc\)	8e/)
4r	4r	4r	4r	4r	4r	(8dd\	(8bb\	(8f/
.	.	.	.	.	.	8cc\J)	8aa\J)	8d/J)
=24	=24	=24	=24	=24	=24	=24	=24	=24
8r	8r	8r	4r	4r	4r	4b\	4gg#\	4e/
8D/L	8DD/L	8D/L	.	.	.	.	.	.
(8C/	(8CC/	(8C/	[2a\	(8ee\L	[2aa\	[2ee\	(8aa\L	[2aa\
8BB/)	8BBB/)	8BB/)	.	8dd\)	.	.	8gg\)	.
(8C#/	(8CC#/	(8C#/	.	(8cc#\	.	.	(8ff\	.
8AA/J)	8AAA/J)	8AA/J)	.	8ee\J)	.	.	8ee\J)	.
=25	=25	=25	=25	=25	=25	=25	=25	=25
(8D\L	(8DD\L	(8D\L	4a\]	(8dd\L	8aa\L]	4ee\]	(8ff\L	8aa\L]
8C#\)	8CC#\)	8C#\)	.	8ee\)	8gg\	.	8aa\)	8gg\
(8D\	(8DD\	(8D\	[2b\	(8ff\	(8ff\	[2dd\	(8ddd\	(8ff\
8E\)	8EE\)	8E\)	.	8gg\J)	8ee\)	.	8ccc\)	8ee\)
(8F\	(8FF\	(8F\	.	4ff\	(8dd\	.	(8bb\	(8dd\
8D\J)	8DD\J)	8D\J)	.	.	8cc\J)	.	8aa\J)	8cc\J)
=26	=26	=26	=26	=26	=26	=26	=26	=26
4G#\	4GG#\	4G#\	4b\]	4.ee\	4b\	8dd\L]	(8eee\L	4b\
.	.	.	.	.	.	8ff\	8ddd\)	.
4E\	4EE\	4E\	4cc\	.	4gg#\	(8ee\	(8ccc\	4gg#\
.	.	.	.	8ff\L	.	8dd\)	8bb\)	.
4A\	4AA\	4A\	4cc\	(8ee\	[4aa\	(8cc\	(8aa\	[4aa\
.	.	.	.	8dd\J)	.	8b\J)	8fff\J)	.
=27	=27	=27	=27	=27	=27	=27	=27	=27
4D\	4DD\	4D\	4a\	8cc\L	8aa\L]	8cc\L	8eee\L	8aa\L]
.	.	.	.	8ff\J	8bb\J	8a\J	8ddd\J	8bb\J
4E\	4EE\	4E\	4e\	4ee\	(4ccc\	4.g#t/	(4ccc\	(4ccc\
4EE/	4EEE/	4EE/	4e\	4dd\	8bbt\L)	.	8bbt\L)	8bbt\L)
.	.	.	.	.	8aa\J	8a/	8aa\J	8aa\J
=28	=28	=28	=28	=28	=28	=28	=28	=28
4AA/	4AAA/	4AA/	4e\	4cc\	4aa\	4a/	4aa\	4aa\
4A\	4AA\	4A\	4e\	(8aa\L	[2ccc\	(8aa\L	[2ccc\	[2ccc\
.	.	.	.	8bb\)	.	8bb\)	.	.
4AA/	4AAA/	4AA/	4a\	(8gg\	.	(8gg\	.	.
.	.	.	.	8aa\J)	.	8aa\J)	.	.
=29	=29	=29	=29	=29	=29	=29	=29	=29
4DD/	4DDD/	4DD/	4a\	4ff#\	4ccc\]	4ff#\	8ccc\]	4ccc\]
.	.	.	.	.	.	.	(16dd\LL	.
.	.	.	.	.	.	.	16ee\JJ	.
4r	4r	4r	4r	4r	4r	4r	16ff#\LL	4r
.	.	.	.	.	.	.	16gg\	.
.	.	.	.	.	.	.	16aa\	.
.	.	.	.	.	.	.	16bb\JJ	.
4r	4r	4r	4r	4r	4r	4r	16ccc\LL	4r
.	.	.	.	.	.	.	16bb\	.
.	.	.	.	.	.	.	16ccc\	.
.	.	.	.	.	.	.	16aa\JJ)	.
=30	=30	=30	=30	=30	=30	=30	=30	=30
4r	4r	4r	4r	4r	4r	4r	[2.bb\	4r
4G\	4GG\	4G\	4d\	(8gg\L	[2bb\	(8gg\L	.	[2bb\
.	.	.	.	8aa\)	.	8aa\)	.	.
4GG/	4GGG/	4GG/	4g\	(8ff#\	.	(8ff#\	.	.
.	.	.	.	8gg\J)	.	8gg\J)	.	.
=31	=31	=31	=31	=31	=31	=31	=31	=31
4CC/	4CC/	4CC/	4g\	4ee\	4bb\]	4ee\	16bb\]	4bb\]
.	.	.	.	.	.	.	(16aa\LL	.
.	.	.	.	.	.	.	16gg\	.
.	.	.	.	.	.	.	16ff#\JJ	.
4r	4r	4r	4r	4r	4r	4r	16ee\LL	4r
.	.	.	.	.	.	.	16dd\	.
.	.	.	.	.	.	.	16cc\	.
.	.	.	.	.	.	.	16b\JJ	.
4r	4r	4r	4r	4r	4r	4r	16cc\LL	4r
.	.	.	.	.	.	.	16ee\	.
.	.	.	.	.	.	.	16gg\	.
.	.	.	.	.	.	.	16bb\JJ)	.
=32	=32	=32	=32	=32	=32	=32	=32	=32
4r	4r	4r	2.r	2.r	2.r	4r	[2.aa\	4r
4F#\	4FF#\	4F#\	.	.	.	(8ff#\L	.	(8aa\L
.	.	.	.	.	.	8gg\)	.	8bb\)
4FF#/	4FFF#/	4FF#/	.	.	.	(8ee\	.	(8gg\
.	.	.	.	.	.	8ff#\J)	.	8aa\J)
=33	=33	=33	=33	=33	=33	=33	=33	=33
4BB/	4BBB/	4BB/	2.r	4r	4r	4dd#\	2.aa\_	(8ff#\L
.	.	.	.	.	.	.	.	8ee\)
4r	4r	4r	.	4dd#\	(8ff#\L	(8aa\L	.	(8ff#\
.	.	.	.	.	8gg\)	8bb\)	.	8gg\)
4r	4r	4r	.	4ee\	(8ee\	(8gg\	.	(8ee\
.	.	.	.	.	8ff#\J)	8aa\J)	.	8ff#\J)
=34	=34	=34	=34	=34	=34	=34	=34	=34
4r	4r	4r	4r	4ff#\	4dd#\	(8ff#\L	8aa\L]	4dd#\
.	.	.	.	.	.	8aa\)	8ccc\	.
4B\	4BB\	4B\	4B/	4dd#\	2dd#t\	(8gg\	(8bb\	2dd#t\
.	.	.	.	.	.	8aa\)	8ccc\)	.
4BB/	4BBB/	4BB/	4f#\	4b\	.	(8ff#\	(8aa\	.
.	.	.	.	.	.	8gg\J)	8bb\J)	.
=35	=35	=35	=35	=35	=35	=35	=35	=35
(8EE/L	(8EEE/L	(8EE/L	(8g\L	(8b\L	(8ee\L	(8ee\L	[2.gg\	(8ee\L
8BB/)	8BBB/)	8BB/)	8a\)	8dd\)	8ff#\J)	8dd\)	.	8ff#\J)
(8E/	(8EE/	(8E/	(8g\	(8cc#\	[2gg\	(8cc#\	.	[2gg\
8F#/)	8FF#/)	8F#/)	8a\)	8dd\)	.	8dd\)	.	.
(8D/	(8DD/	(8D/	(8f#\	(8b\	.	(8b\	.	.
8E/J)	8EE/J)	8E/J)	8g\J)	8cc#\J)	.	8cc#\J)	.	.
=36	=36	=36	=36	=36	=36	=36	=36	=36
4C#/	4CC#/	4C#/	4e\	4a#/	8gg\L]	4a#/	8gg\L]	8gg\L]
.	.	.	.	.	8gg\	.	8gg\	8gg\
4F#\	4FF#\	4F#\	4c#\	2a#t/	(8ff#\	2a#t/	(8ff#\	(8ff#\
.	.	.	.	.	8gg\)	.	8gg\)	8gg\)
4FF#/	4FFF#/	4FF#/	4f#\	.	(8ee\	.	(8ee\	(8ee\
.	.	.	.	.	8ff#\J)	.	8ff#\J)	8ff#\J)
=37	=37	=37	=37	=37	=37	=37	=37	=37
(8BB\L	(8BBB\L	(8BB\L	4f#\	(8b\L	8dd\L	(8b\L	(8dd\L	8dd\L
8F#\)	8FF#\)	8F#\)	.	8cc#\)	8ee\J	8cc#\)	8ee\J)	8ee\J
(8B\	(8BB\	(8B\	4f#\	(8dd\	[2ff#\	(8dd\	[2ff#\	[2ff#\
8c#\)	8C#\)	8c#\)	.	8ee\)	.	8ee\)	.	.
(8A\	(8AA\	(8A\	4a\	(8cc#\	.	(8cc#\	.	.
8B\J)	8BB\J)	8B\J)	.	8dd\J)	.	8dd\J)	.	.
=38	=38	=38	=38	=38	=38	=38	=38	=38
2.GT\	2.GGT\	2.GT\	4d\	8b\L	8ff#\L]	(8b\L	8ff#\L]	8ff#\L]
.	.	.	.	8cc#\J	8aa#\	8cc#\)	8aa#\	8aa#\
.	.	.	4B/	4dd\	(8bb\	(8dd\	(8bb\	(8bb\
.	.	.	.	.	8ddd\)	8ff#\)	8ddd\)	8ddd\)
.	.	.	4g\	4eeT\	(8ccc#\	(8dd\	(8ccc#\	(8ccc#\
.	.	.	.	.	8bb\J)	8ee\J)	8bb\J)	8bb\J)
=39	=39	=39	=39	=39	=39	=39	=39	=39
4F#\	4FF#\	4F#\	4c#\	4ff#\	4aa#\	[2.ff#\	8aa#\L	4aa#\
.	.	.	.	.	.	.	8ccc#\	.
4B\	4BB\	4B\	4B/	4ff#\	4bb\	.	(8ddd\	4bb\
.	.	.	.	.	.	.	8eee\)	.
4A\	4AA\	4A\	4r	4r	4r	.	(8ccc#\	4r
.	.	.	.	.	.	.	8ddd\J)	.
=40	=40	=40	=40	=40	=40	=40	=40	=40
4G#\	4GG#\	4G#\	8dd\L	4gg#\	4bb\	4ff#\]	(8bb\L	4bb\
.	.	.	8b\J	.	.	.	8ddd\)	.
4c#\	4C#\	4c#\	4g#\	4gg#\	4ccc#\	4ee#\	(8ccc#\	4ccc#\
.	.	.	.	.	.	.	8ddd\)	.
4C#/	4CC#/	4C#/	4r	4r	4r	[4ee\	(8bb\	4r
.	.	.	.	.	.	.	8ccc#\J)	.
=41	=41	=41	=41	=41	=41	=41	=41	=41
4F#\	4FF#\	4F#\	8cc#\L	4ff#\	4aa#\	4ee\]	(8aa#\L	4aa#\
.	.	.	8a#\J	.	.	.	8ccc#\)	.
4B\	4BB\	4B\	4f#\	4ff#\	4bb\	4dd#\	(8bb\	4bb\
.	.	.	.	.	.	.	8ccc#\)	.
4BB/	4BBB/	4BB/	4r	4r	4r	[4dd\	(8aa\	4r
.	.	.	.	.	.	.	8bb\J)	.
=42	=42	=42	=42	=42	=42	=42	=42	=42
4E\	4EE\	4E\	8b\L	4ee\	4gg#\	4dd\]	(8gg#\L	4gg#\
.	.	.	8g#\J	.	.	.	8bb\)	.
4A\	4AA\	4A\	4e\	4ee\	4aa\	4cc#\	(8aa\	4aa\
.	.	.	.	.	.	.	8bb\)	.
4AA/	4AAA/	4AA/	4r	4r	4r	[4cc\	(8gg\	4r
.	.	.	.	.	.	.	8aa\J)	.
=43	=43	=43	=43	=43	=43	=43	=43	=43
4DD/	4DDD/	4DD/	4a\	4.dd\	(8ff#\L	4cc\]	(8ff#\L	(8ff#\L
.	.	.	.	.	8ee\)	.	8gg\)	8ee\)
4D\	4DD\	4D\	4d\	.	(8dd\	4a#/	(8ff#\	(8dd\
.	.	.	.	8a#/L	8cc#\)	.	8ee\)	8cc#\)
8G\L	8GG\L	8G\L	4d\	(8b/	(8b\	[4b\	(8dd\	(8b\
8F#\J	8FF#\J	8F#\J	.	8a/J)	8dd\J)	.	8ff#\J)	8dd\J)
=44	=44	=44	=44	=44	=44	=44	=44	=44
8G\L	8GG\L	8G\L	8c#\L	8g\L	(8ee\L	8b\L]	8bb\L	8ee\L
8E\J	8EE\J	8E\J	8e\J	8gg\	8gg\J)	8cc#\J	8aa#\J	8gg\J
4F#\	4FF#\	4F#\	4A#/	(8ff#\	4.cc#t\	4.cc#t\	4.aa#t\	4.cc#t\
.	.	.	.	8gg\)	.	.	.	.
4FF#/	4FFF#/	4FF#/	4f#\	(8ee\	.	.	.	.
.	.	.	.	8ff#\J)	8b\	8b\	8bb\	8b\
=45	=45	=45	=45	=45	=45	=45	=45	=45
4BB/	4BBB/	4BB/	4f#\	4dd\	4b\	4b\	4bb\	4b\
4r	4r	4r	4r	4r	4r	(8dd\L	(8ff#\L	4b\
.	.	.	.	.	.	8ee\)	8gg\)	.
4r	4r	4r	4r	4r	4r	(8dd\	(8ff#\	4B/
.	.	.	.	.	.	8ee\J)	8gg\J)	.
=46	=46	=46	=46	=46	=46	=46	=46	=46
4r	4r	4r	4r	4r	4r	4ff#\	4aa\	(8f#\L
.	.	.	.	.	.	.	.	8g\
4A\	4AA\	4A\	4a\	(8cc#\L	(8ee\L	(8cc#\L	(8ee\L	8a\)
.	.	.	.	8dd\)	8ff#\)	8dd\)	8ff#\)	8ff#\
4AA/	4AAA/	4AA/	4a\	(8ee\	(8gg\	(8ee\	(8gg\	8gg\
.	.	.	.	8cc#\J)	8ee\J)	8cc#\J)	8ee\J)	8ee\J
=47	=47	=47	=47	=47	=47	=47	=47	=47
4DD/	4DDD/	4DD/	4a\	4dd\	4ff#\	4dd\	4ff#\	4ff#\
4r	4r	4r	4r	4r	4r	(8cc#\L	(8ee\L	4a/
.	.	.	.	.	.	8dd\)	8ff#\)	.
4r	4r	4r	4r	4r	4r	(8ee\	(8gg\	4A/
.	.	.	.	.	.	8cc#\J)	8ee\J)	.
=48	=48	=48	=48	=48	=48	=48	=48	=48
4r	4r	4r	4r	4r	4r	4dd\	4ff#\	4d/
4B\	4BB\	4B\	4b\	(8dd#\L	(8ff#\L	(8dd#\L	(8ff#\L	(8ff#\L
.	.	.	.	8ee\)	8gg\)	8ee\)	8gg\)	8gg\)
4BB/	4BBB/	4BB/	4b\	(8ff#\	(8aa\	(8ff#\	(8aa\	(8aa\
.	.	.	.	8dd#\J)	8ff#\J)	8dd#\J)	8ff#\J)	8ff#\J)
=49	=49	=49	=49	=49	=49	=49	=49	=49
4EE/	4EEE/	4EE/	4b\	(8ee\L	(8gg\L	(8ee\L	(8gg\L	(8gg\L
.	.	.	.	8dd\)	8ff#\)	8dd\)	8ff#\)	8ff#\)
4E\	4EE\	4E\	8e\L	(8cc\	(8aa\	(8cc\	(8aa\	(8aa\
.	.	.	8d#\J	8b\)	8gg\)	8b\)	8gg\)	8gg\)
4C/	4CC/	4C/	4e\	(8g\	(8ff#\	(8g\	(8ff#\	(8ff#\
.	.	.	.	8a\J)	8ee\J)	8a\J)	8ee\J)	8ee\J)
=50	=50	=50	=50	=50	=50	=50	=50	=50
4BB/	4BBB/	4BB/	4f#\	4b\	4dd#\	4b\	4dd#\	4dd#\
4r	4r	4r	4r	4r	4r	(8cc\L	(8aa\L	(8A/L
.	.	.	.	.	.	8b\)	8gg\)	8B/)
4r	4r	4r	4r	4r	4r	8a\	(8ff#\	(8c/
.	.	.	.	.	.	8gg\J	8ee\J)	8A/J)
=51	=51	=51	=51	=51	=51	=51	=51	=51
8r	8r	8r	4r	4r	4r	4ff#\	4dd#\	4B/
8AA/L	8AAA/L	8AA/L	.	.	.	.	.	.
(8GG/	(8GGG/	(8GG/	[2e\	(8b/L	[2ee\	[2bb\	(8ee\L	[2ee\
8FF#/)	8FFF#/)	8FF#/)	.	8a/)	.	.	8dd\)	.
(8GG#/	(8GGG#/	(8GG#/	.	(8g#/	.	.	(8cc\	.
8EE/J)	8EEE/J)	8EE/J)	.	8b/J)	.	.	8b\J)	.
=52	=52	=52	=52	=52	=52	=52	=52	=52
(8AA/L	(8AAA/L	(8AA/L	4e\]	(8a\L	8ee\L]	4bb\]	(8cc\L	8ee\L]
8GG#/)	8GGG#/)	8GG#/)	.	8b\)	8dd\	.	8ee\)	8dd\
(8AA/	(8AAA/	(8AA/	[2f#\	(8cc\	(8cc\	[2aa\	(8aa\	(8cc\
8BB/)	8BBB/)	8BB/)	.	8dd\J)	8b\)	.	8gg\)	8b\)
(8C/	(8CC/	(8C/	.	4cc\	(8a\	.	(8ff#\	(8a\
8AA/J)	8AAA/J)	8AA/J)	.	.	8g\J)	.	8ee\J)	8g\J)
=53	=53	=53	=53	=53	=53	=53	=53	=53
4D#\	4DD#\	4D#\	4f#\]	4.b\	4f#/	8aa\L]	(8bb\L	4f#/
.	.	.	.	.	.	8ccc\	8aa\)	.
4BB/	4BBB/	4BB/	4g\	.	4dd#\	(8bb\	(8gg\	4dd#\
.	.	.	.	8cc\L	.	8aa\)	8ff#\)	.
4E\	4EE\	4E\	4g\	8b\	[4ee\	(8gg\	(8ee\	[4ee\
.	.	.	.	8a\J	.	8ff#\J)	8ccc\J)	.
=54	=54	=54	=54	=54	=54	=54	=54	=54
4A\	4AA\	4A\	4e\	8g/L	8ee\L]	(8gg\L	8bb\L	8ee\L]
.	.	.	.	8cc/J	8ff#\J	8ee\J)	8aa\J	8ff#\J
4B\	4BB\	4B\	4b\	4b/	4gg\	4.dd#t\	4gg\	4gg\
4BB/	4BBB/	4BB/	4b\	4a/	8ff#\L	.	(8ff#t\L	(8ff#t\L
.	.	.	.	.	8ee\J	8ee\	8ee\J)	8ee\J)
=55	=55	=55	=55	=55	=55	=55	=55	=55
4EE/	4EEE/	4EE/	4b\	4g/	4ee\	[2.ee\	[2.ee\	4ee\
(8e\L	(8E\L	(8e\L	4e\	4b/	4gg\	.	.	4gg\
8f\)	8F\)	8f\)	.	.	.	.	.	.
(8e\	(8E\	(8e\	4r	4r	4r	.	.	4r
8f\J)	8F\J)	8f\J)	.	.	.	.	.	.
=56	=56	=56	=56	=56	=56	=56	=56	=56
(8d\L	(8D\L	(8d\L	4g#\	4b\	4bb\	2.ee\_	2.ee\_	4bb\
8c\)	8C\)	8c\)	.	.	.	.	.	.
(8d\	(8D\	(8d\	4b\	4ee\	4gg#\	.	.	4gg#\
8f\)	8F\)	8f\)	.	.	.	.	.	.
(8e\	(8E\	(8e\	4r	4r	4r	.	.	4r
8d\J)	8D\J)	8d\J)	.	.	.	.	.	.
=57	=57	=57	=57	=57	=57	=57	=57	=57
(8c\L	(8C\L	(8c\L	4a\	4ee\	4aa\	8ee\L]	2.ee\_	4aa\
8B\)	8BB\)	8B\)	.	.	.	8dd\	.	.
(8c\	(8C\	(8c\	4e\	4aa\	4ccc\	(8ee\	.	4ccc\
8d\)	8D\)	8d\)	.	.	.	8ff\)	.	.
(8c\	(8C\	(8c\	4r	4r	4r	(8ee\	.	4r
8d\J)	8D\J)	8d\J)	.	.	.	8ff\J)	.	.
=58	=58	=58	=58	=58	=58	=58	=58	=58
(8B\L	(8BB\L	(8B\L	4b\	4gg#\	4ddd\	(8dd\L	2.ee\]	4ddd\
8A\)	8AA\)	8A\)	.	.	.	8cc\)	.	.
(8B\	(8BB\	(8B\	4d\	4b\	4gg#\	(8dd\	.	4gg#\
8d\)	8D\)	8d\)	.	.	.	8ff\)	.	.
(8c\	(8C\	(8c\	4r	4r	4r	(8ee\	.	4r
8B\J)	8BB\J)	8B\J)	.	.	.	8dd\J)	.	.
=59	=59	=59	=59	=59	=59	=59	=59	=59
4A\	4AA\	4A\	4a\	4cc\	(8aa\L	4cc\	(8ff\L	(8aa\L
.	.	.	.	.	8gg\J)	.	8gg\J)	8gg\J)
4AA/	4AAA/	4AA/	4cc\	4ff\	4aa\	4aa\	4aa\	4aa\
4r	4r	4r	4r	4r	4r	4r	(8ff\L	4r
.	.	.	.	.	.	.	8gg\J)	.
=60	=60	=60	=60	=60	=60	=60	=60	=60
4A\	4AA\	4A\	4c\	(8ff\L	(8aa\L	(8aa\L	4aa\	(8aa\L
.	.	.	.	8gg\J)	8bb\J)	8bb\J)	.	8bb\J)
4AA/	4AAA/	4AA/	4f\	4aa\	4ccc\	4ccc\	8r	4ccc\
.	.	.	.	.	.	.	8aa\L	.
4r	4r	4r	4r	4r	4r	4r	8bb\	4r
.	.	.	.	.	.	.	8ccc\J	.
=61	=61	=61	=61	=61	=61	=61	=61	=61
4BB/	4BBB/	4BB/	4f#\	4b\	4dd#\	4dd#\	4dd#\	4dd#\
4r	4r	4r	4r	4r	4r	(8gg\L	[2bb\	4ee\
.	.	.	.	.	.	8aa\)	.	.
4r	4r	4r	4r	4r	4r	(8ff#\	.	4dd\
.	.	.	.	.	.	8gg\J)	.	.
=62	=62	=62	=62	=62	=62	=62	=62	=62
2.r	2.r	2.r	2.r	2.r	2.r	(8ee#\L	4bb\]	4cc#\
.	.	.	.	.	.	8gg#\)	.	.
.	.	.	.	.	.	(8ff#\	4aa#\	4ff#\
.	.	.	.	.	.	8gg\)	.	.
.	.	.	.	.	.	(8ee\	[4aa\	4f#/
.	.	.	.	.	.	8ff#\J)	.	.
=63	=63	=63	=63	=63	=63	=63	=63	=63
2.r	2.r	2.r	2.r	2.r	2.r	(8dd#\L	4aa\]	4b\
.	.	.	.	.	.	8ff#\)	.	.
.	.	.	.	.	.	(8ee\	4gg#\	4ee\
.	.	.	.	.	.	8ff#\)	.	.
.	.	.	.	.	.	(8dd\	[4gg\	4e/
.	.	.	.	.	.	8ee\J)	.	.
=64	=64	=64	=64	=64	=64	=64	=64	=64
2.r	2.r	2.r	2.r	2.r	2.r	(8cc#\L	4gg\]	4a/
.	.	.	.	.	.	8ee\)	.	.
.	.	.	.	.	.	(8dd\	4ff#\	4dd\
.	.	.	.	.	.	8ee\)	.	.
.	.	.	.	.	.	(8cc\	[4ff\	4d/
.	.	.	.	.	.	8dd\J)	.	.
=65	=65	=65	=65	=65	=65	=65	=65	=65
4r	4r	4r	4r	4r	4r	(8b\L	4ff\]	4g/
.	.	.	.	.	.	8ccc\	.	.
4r	4r	4r	4r	4r	4r	8bb\	4dd#\	(8a\L
.	.	.	.	.	.	8aa\	.	8b\
8r	8r	8r	8r	8r	8r	8gg\J)	[4ee\	8cc\J)
8F#\	8FF#\	8F#\	8a\	8dd#\	8ccc\	8dd#\	.	8ccc\
=66	=66	=66	=66	=66	=66	=66	=66	=66
8G\L	8GG\L	8G\L	8b\L	8ee\L	8bb\L	8ee\L	8ee\L]	(8bb\L
8A\J	8AA\J	8A\J	8cc\J	8ccc\J	8aa\J	8ccc\J	8ff#\J	8aa\J)
4B\	4BB\	4B\	4b\	4.dd#t\	(4gg\	4.dd#t\	4gg\	4gg\
4BB/	4BBB/	4BB/	4a\	.	8ff#t\L)	.	8ff#\L	(8ff#t\L
.	.	.	.	8ee\	8ee\J	8ee\	8ee\J	8ee\J)
=67	=67	=67	=67	=67	=67	=67	=67	=67
2E\	2EE\	2E\	2g\	2ee\	2ee\	2ee\	2ee\	2ee\
4D\	4DD\	4D\	4b\	4ff#\	4bb\	4ff#\	4bb\	4bb\
=68	=68	=68	=68	=68	=68	=68	=68	=68
2.r	2.r	2.r	2.r	2.r	2.r	2.r	16r	2.r
.	.	.	.	.	.	.	(16b\LL	.
.	.	.	.	.	.	.	16cc\	.
.	.	.	.	.	.	.	16dd\	.
.	.	.	.	.	.	.	16ee\	.
.	.	.	.	.	.	.	16ff#\	.
.	.	.	.	.	.	.	16gg\	.
.	.	.	.	.	.	.	16aa\	.
.	.	.	.	.	.	.	16bb\	.
.	.	.	.	.	.	.	16ccc\	.
.	.	.	.	.	.	.	16ddd\	.
.	.	.	.	.	.	.	16bb\JJ	.
=69	=69	=69	=69	=69	=69	=69	=69	=69
2.r	2.r	2.r	2.r	2.r	2.r	2.r	16eee\LL	2.r
.	.	.	.	.	.	.	16ddd\	.
.	.	.	.	.	.	.	16ccc\	.
.	.	.	.	.	.	.	16bb\	.
.	.	.	.	.	.	.	16aa\	.
.	.	.	.	.	.	.	16gg\	.
.	.	.	.	.	.	.	16ff#\	.
.	.	.	.	.	.	.	16ee\	.
.	.	.	.	.	.	.	16dd#\	.
.	.	.	.	.	.	.	16ee\	.
.	.	.	.	.	.	.	16dd#\	.
.	.	.	.	.	.	.	16ee\JJ)	.
=70	=70	=70	=70	=70	=70	=70	=70	=70
4r	4r	4r	4r	4r	4r	4r	4r	4r
2C/	2CC/	2C/	2cc\	2eeT\	2aaT\	2eeT\	2aa\	2aa\
=71	=71	=71	=71	=71	=71	=71	=71	=71
2.BB;/	2.BBB;/	2.BB;/	2.f#;\	2.dd#;\	2.bb;\	2.dd#;\	2.bb;\	2.bb;\
=	=	=	=	=	=	=	=	=
*-	*-	*-	*-	*-	*-	*-	*-	*-
!!!CDT: 1685/3//-1750/7/28
!!!OCY: Deutschland
!!!ODE: His Royal Highness Christian Ludwig, Margrave of Brandenburg.
!!!ODT: ~1720//
!!!OPC: ?Coethen; ?Cothen; ?Co2then
!!!PPR: Peters
!!!PDT: 1850
!!!PPP: Leipzig
!!!AGN: concerto grosso
!!!AST: baroque, orchestral
!!!AMT: simple triple
!!!SCA: Bach-Werke-Verzeichnis
!!!YOR: Bach Gesellschaft, xix,85
!!!YOY: 1871; although imprint says 1869
!!!AIN: cbass; cemba; cello; fltdn; viola; violn
!!!EEV: 1.0
!!!RDT: 1994 March 12
!!!YER: 1994 October 22
!!!YEN: United States of America
!!!EFL: 2/3
!!!EED: W.B. Hewlett
!!!VTS: 4233102298
